svg/brand/stripe.svg

<svg width="16" height="16" viewBox="0 0 16 16" fill="none" xmlns="http://www.w3.org/2000/svg">
<path d="M4.23128 5.26601L3.16621 5.48701V8.95401C3.1616 9.24271 3.2707 9.52165 3.46996 9.73063C3.66922 9.9396 3.94266 10.0619 4.23128 10.071H4.28328C4.54202 10.0828 4.79994 10.0339 5.03633 9.92801V9.04501C4.89332 9.09701 4.21827 9.30501 4.21827 8.65601V7.12301H5.03633V6.20001H4.20527L4.23128 5.26601Z" fill="black"/>
<path d="M1.29709 7.30501C1.29709 7.13601 1.4401 7.07101 1.66111 7.07101C2.03595 7.0832 2.40372 7.17633 2.73918 7.34401V6.33101C2.39683 6.19287 2.03023 6.12486 1.66111 6.13101C0.790055 6.12401 0.205017 6.59101 0.205017 7.35701C0.205017 8.55201 1.85512 8.35701 1.85512 8.87701C1.85512 9.07101 1.68611 9.13601 1.4391 9.13601C1.02351 9.11116 0.619136 8.99143 0.25702 8.78601V9.82501C0.631293 9.98311 1.03282 10.0667 1.4391 10.071C2.33915 10.071 2.95819 9.63001 2.95819 8.85101C2.94519 7.55201 1.29709 7.78601 1.29709 7.30501Z" fill="black"/>
<path d="M6.38741 6.52601L6.32241 6.20001H5.38735V9.99301H6.46542V7.42201C6.56253 7.30556 6.69311 7.22179 6.83945 7.18208C6.98579 7.14237 7.14081 7.14863 7.28347 7.20001V6.20001C7.11972 6.13919 6.93967 6.13858 6.77551 6.19831C6.61136 6.25803 6.47379 6.37419 6.38741 6.52601Z" fill="black"/>
<path d="M15.79 8.11001C15.79 7.01001 15.257 6.12401 14.2309 6.12401C13.9895 6.1362 13.7532 6.19821 13.5369 6.30616C13.3205 6.41411 13.1289 6.56564 12.974 6.75124C12.8191 6.93684 12.7043 7.15248 12.6368 7.3846C12.5693 7.61672 12.5506 7.8603 12.5818 8.10001C12.5475 8.35114 12.5689 8.60674 12.6444 8.84869C12.7199 9.09065 12.8476 9.31306 13.0186 9.50016C13.1896 9.68726 13.3996 9.83449 13.6338 9.93141C13.8681 10.0283 14.1207 10.0726 14.3739 10.061C14.792 10.0722 15.2056 9.97392 15.574 9.77601V8.91601C15.245 9.08419 14.8781 9.16445 14.5089 9.14901C14.0929 9.14901 13.7169 9.00601 13.6649 8.48701H15.795C15.7868 8.36152 15.7851 8.23568 15.79 8.11001ZM13.6469 7.70001C13.6469 7.20601 13.9469 7.01201 14.2179 7.01201C14.4889 7.01201 14.764 7.21901 14.764 7.70001H13.6469Z" fill="black"/>
<path d="M8.64656 6.20101H7.55549V9.99301H8.64656V6.20101Z" fill="black"/>
<path d="M10.9067 6.12401C10.592 6.12135 10.2889 6.24237 10.0626 6.46101L10.0106 6.18801H9.06258V11.24L10.1407 11.006V9.78601C10.3566 9.96303 10.6275 10.0592 10.9067 10.058C11.6858 10.058 12.3868 9.43501 12.3868 8.05801C12.3738 6.81201 11.6598 6.12401 10.9067 6.12401ZM10.6467 9.11001C10.5534 9.11552 10.46 9.10106 10.3727 9.06761C10.2855 9.03416 10.2064 8.98247 10.1407 8.91601V7.30501C10.2062 7.23379 10.2868 7.17815 10.3766 7.14215C10.4664 7.10616 10.5631 7.09073 10.6597 7.09701C11.0497 7.09701 11.3217 7.53901 11.3217 8.11001C11.3217 8.68101 11.0367 9.11001 10.6467 9.11001Z" fill="black"/>
<path d="M7.55549 5.87701L8.64656 5.64301V4.76001L7.55549 4.99401V5.87701Z" fill="black"/>
</svg>

<svg id="Layer_1" data-name="Layer 1" xmlns="http://www.w3.org/2000/svg" viewBox="0 0 16 16"><title>stripe</title><path d="M4.234,5.266l-1.065.221V8.954a1.1,1.1,0,0,0,1.065,1.117h.052a1.657,1.657,0,0,0,.753-.143V9.045c-.143.052-.818.26-.818-.389V7.123h.818V6.2H4.208Z"/><path d="M1.3,7.305c0-.169.143-.234.364-.234a2.6,2.6,0,0,1,1.078.273V6.331a2.758,2.758,0,0,0-1.078-.2C.793,6.124.208,6.591.208,7.357c0,1.195,1.65,1,1.65,1.52,0,.194-.169.259-.416.259A2.725,2.725,0,0,1,.26,8.786V9.825a3.123,3.123,0,0,0,1.182.246c.9,0,1.519-.441,1.519-1.22C2.948,7.552,1.3,7.786,1.3,7.305Z"/><path d="M6.39,6.526,6.325,6.2H5.39V9.993H6.468V7.422A.739.739,0,0,1,7.286,7.2v-1A.736.736,0,0,0,6.39,6.526Z"/><path d="M15.792,8.11c0-1.1-.533-1.986-1.559-1.986A1.752,1.752,0,0,0,12.584,8.1a1.729,1.729,0,0,0,1.792,1.961,2.4,2.4,0,0,0,1.2-.285V8.916a2.143,2.143,0,0,1-1.065.233c-.416,0-.792-.143-.844-.662h2.13A3.608,3.608,0,0,1,15.792,8.11ZM13.649,7.7c0-.494.3-.688.571-.688s.546.207.546.688Z"/><rect x="7.558" y="6.201" width="1.091" height="3.792"/><path d="M10.909,6.124a1.2,1.2,0,0,0-.844.337l-.052-.273H9.065V11.24l1.078-.234V9.786a1.2,1.2,0,0,0,.766.272c.779,0,1.48-.623,1.48-2C12.376,6.812,11.662,6.124,10.909,6.124Zm-.26,2.986h0a.657.657,0,0,1-.506-.194V7.305a.648.648,0,0,1,.519-.208c.39,0,.662.442.662,1.013S11.039,9.11,10.649,9.11Z"/><polygon points="7.558 5.877 8.649 5.643 8.649 4.76 7.558 4.994 7.558 5.877"/></svg>
